!!!COM: Claude Debussy
!!!CNT: Francais
!!!TXO: Francais
!!!OTL: De soir...
!!!LYR: Claude Debussy
!!!OPR: Proses Lyriques
!!!ONM: No. 4
!!!ENC: Jacob Pegg
!!!YOR: Claude Debussy: Songs 1880-1904, Edited by Rita Benton
!!!YOR: New York: Dover publications, inc., 1981
!!!YOR: ISBN 0-486-24131-9
!!!ODT: 1893/
!!NB: Vocal melody and text only encoded.
!!NB: First instance of melodic material only encoded.
**kern	**silbe
*clef G2	*
*k[f#c#g#d#]	*
*M2/2	*
*MM[moderato]	*
!! moderement anime
!!created: 7/23/03 13:34
!!last edit: 7/23/03 16:20
!!total time: 72 min.
!! notes in 35 min, words in 16. chk: notes 11, words 9
=1	=1
1r	.
=2	=2
2r	.
4r	.
8r	.
{8g#	{Di-
=3	=3
2dd#	-man-
4cc#	-che
8cc#	sur
8cc#	les
=4	=4
2g#	vil-
8g#}	-les,}
8r	.
{4cc#	{Di-
=5	=5
4gg#	-man-
4dd#	-che
4cc#	dans
4cc#	les
=6	=6
2g#}	coeurs!}
2r	.
=7	=7
4r	.
8r	.
{8g#	{Di-
4f#	-man-
8f#	-che
8f#	chez
=8	=8
8g#	les
8g#	pe-
8g#	-ti-
8g#	-tes
4f#	fil-
8f#	-les
8f#	chan-
=9	=9
6b	-tant
6b	d'u-
6b	-ne
6g#	voix
6g#	in-
6g#	-for-
=10	=10
4an}	-me/e}
8r	.
{8an	{Des
8an	ron-
8an	-des
8an	obs-
8an	-ti-
=11	=11
[4f#	-ne/-
8f#]}	-es,}
8r	.
{8g#	{Ou\
8g#	de
8g#	bon-
8g#	-nes
=12	=12
4f#}	tours}
4r	.
{4g#	{N'en
4g#	ont
=13	=13
3d#	plus
6d#	que
6d#	pour
6d#	quel-
6d#	-ques
=14	=14
2d#}	jours!}
4r	.
8r	.
{8g#	{Di-
=15	=15
2dd#	-man-
4cc#}	-che,}
8r	.
{8cc#	{les
=16	=16
4dd#	ga-
8dd#	-res
8ff#	sont
4ee#	fol-
4cc#}	-les!}
=17	=17
4r	.
{8ddn	{Tout
8ddn	le
4dd#	monde
8ff#	ap-
8ee#	-pa-
=18	=18
2een	-reil-
4dd#	-le
4dd#	pour
=19	=19
4ddn	des
4ddn	ban-
4cc#	-lieues
8g#	d'a-
8a#	-ven-
=20	=20
2g#	-tu-
4f#}	-re,}
{4f#	{en
=21	=21
4e#	se
4e#	di-
4f#	-sant
4b	a-
=22	=22
2e#	-dieu
2b	a-
=23	=23
4c##	-vec
4c##	des
4c##	ges-
4c##	-tes
=24	=24
4c##	e/-
4ee#	-per-
2ee#}	-dus!}
=25	=25
1r	.
=26	=26
2r	.
4r	.
8r	.
{8f#	{Di-
=27	=27
2cc#	-man-
4cc#	-che
8r	.
8dd#	les
=28	=28
8ff#	trains
8cc#	vont
2cc#	vi-
4f#}	-te,}
=29	=29
2r	.
{4b	{De/-
4b	-vo-
=30	=30
4.b	-re/s
8b	par
6cc#	d'in-
6b	-sa-
6cc#	-ti-
=31	=31
2ee	-a-
4b	-bles
4b	tun-
=32	=32
2b}	-nels;}
2r	.
=33	=33
2r	.
{4dd#	{Et
4g#	les
=34	=34
4cc#	bons
4dd#	si-
4g#	-gnaux
4g#	des
=35	=35
4b	rou-
8b}	-tes}
8r	.
4r	.
{4b	{E/-
=36	=36
2ff#	-chan-
4b	-gent
4b	d'un
=37	=37
8b	oeil
8dd#	u-
2dd#	-ni-
4g#}	-que,}
=38	=38
6r	.
6r	.
{6g#	{des
6g#	im-
6g#	-pres-
6g#	-si-
=39	=39
3f#	-ons
6f#	tou-
6f#	-tes
6f#	me/-
6f#	-ca-
=40	=40
2f#	-ni-
4f#}	-ques.}
4r	.
=41	=41
*k[b-e-a-]	*
1r	.
=42	=42
2r	.
4r	.
{4f	{Di-
=43	=43
2b-	-man-
4f}	-che,}
4r	.
=44	=44
2r	.
{4f	{dans
4f	le
=45	=45
2f	bleu
4f	de
4f	mes
=46	=46
[1f	re^-
=47	=47
2f]	|
[2d-	-ves,
=48	=48
4d-]}	|}
4r	.
2r	.
=49	=49
*k[f#c#g#d#a#]	*
6r	.
6r	.
{6c#	{ou\
6e	mes
6f#	pen-
6g#	-se/es
=50	=50
2an	tris-
4an	-tes
4an	de
=51	=51
6c#	feux
6c#	d'ar-
6c#	-ti-
6e	-fi-
6f#	-ces
6g#	man-
=52	=52
1an}	-que/s}
=53	=53
2r	.
{6g#	{Ne
6g#	veu-
6g#	-lent
=54	=54
4b	plus
(4b	quit-
4g#	-ter
4e#)	le
=55	=55
2.en	deuil
4en	de
=56	=56
4e#	vieux
4g#	Di-
[2b	-man-
=57	=57
4b]	|
4g#	-ches
4b	tre/-
4dd#	-pas-
=58	=58
[1ee#	-se/s.
=59	=59
2ee#]}	|}
2r	.
=60	=60
*MM[presto]	*
1r	.
=61	=61
{2ee	{Et
2dd#	la
=62	=62
2.cc#	nuit,
4g#	a\
=63	=63
2g#	pas
4e	de
4g#	ve-
=64	=64
1d#}	-lours,}
=65	=65
{2e#	{Vient
4f#	en-
4g#	-dor-
=66	=66
(2a#	-mir
2b)	|
=67	=67
2ddn	le
2ee#	beau
=68	=68
1ff#	ciel
=69	=69
(2dd#	fa-
2ff#	-ti-
=70	=70
1g#)}	-gue/,}
=71	=71
4r	.
{4b	{et
4a#	c'est
4a#	Di-
=72	=72
2g#	-man-
4g#}	-che}
4r	.
=73	=73
{6b	{dans
6b	les
6b	a-
6a#	-ve-
6a#	-nues
6a#	d'e/-
=74	=74
2g#	-toi-
4g#}	-les;}
4r	.
=75	=75
2r	.
{2a#	{la
=76	=76
[2cc#	Vier-
2cc#]	-ge
=77	=77
2ee#	or
4cc#	sur
4ee#	ar-
=78	=78
2ee#	-gent
(2cc#	lais-
=79	=79
2g#	-se
2an	tom-
=80	=80
2.e#)	-ber
4e#	les
=81	=81
2e#	fleurs
4e#	de
4e#	som-
=82	=82
1d#}	-meil!}
=83	=83
1r	.
=84	=84
*MM[moderato]	*
2r	.
{4e	{Vi-
8e}	-te,}
8r	.
=85	=85
8r	.
{8e	{les
8e	pe-
8e	-tits
4e	an-
8e}	-ges,}
8r	.
=86	=86
4r	.
{8e	{De/-
8e	-pas-
8e	-sez
8e	les
8e	hi-
8e	-ron-
=87	=87
2f#	-del-
4f#}	-les}
4r	.
=88	=88
4r	.
{4g#	{A-
4a#	-fin
4a#	de
=89	=89
4b	vous
4cc#	cou-
2g#}	-cher}
=90	=90
6r	.
{6d#	{Forts
6d#	d'ab-
6d#	-so-
6d#	-lu-
6d#	-ti-
=91	=91
1d#}	-on!}
=92	=92
1r	.
=93	=93
2r	.
2r	.
=94	=94
1r	.
=95	=95
2r	.
2r	.
=96	=96
{4a#	{Pre-
4a#	-nez
6a#	pi-
6a#	-tie/
6a#	des
=97	=97
[2a#	vil-
4a#]}	-les,}
4r	.
=98	=98
1r	.
=99	=99
6r	.
{6cc#	{Pre-
6cc#	-nez
6cc#	pi-
6cc#	-tie/
6cc#	des
=100	=100
2cc#	coeurs,
4.cc#	Vous,
8cc#	la
=101	=101
(2dd#	Vier-
4b)}	-ge}
4r	.
=102	=102
{2b	{or
4g#	sur
4b	ar-
=103	=103
1g#}	-gent!}
*-	*-
